X:17
T:Blackberry Blossom
C:Old-Time, Bluegrass
M:4/4
K:G
L:1/8
"G" gabg "D" fgaf | "C" efge "G" dBAG | "C" EFGE "G" DEGA | "D" BdBG Adef |
"G" gabg "D" fgaf | "C" efge "G" dBAG | "C" EFGE "G" DEGA |1 "D" BGAF "G" G4 :|2 "D" BGAF "G" G2 GF ||
|: "Em" [B2E2] [eE4]B dB[Ee][dE] | [B2E2] [eE][BE] "D" [E2d]B[AD]G | "Em" [B2E2] [Ee][BE] [dE]Bef | "G" gabg "D" aged |
"Em" [B2E2] [eE][BE] [dE]B[Ee][dE] | [B2E2] [eE][BE] "D" [E2c]B[AD]F | "Em" [B2E2] [Ee][BE] [E2d]B[Ee][BE] |1 "D" BGAF "G" G2 GF :|2 "D" BGAF "G" G4 |]

